X:39
T:The Four Musketeers
R:pipe jig
C:Brenda Stubbert
O:Cape Breton Island
S:http://www.cranfordpub.com
D:Music All Around, 2003
Z:psc, (re-formatted,updated 9/19/04)
N:http://www.cranfordpub.com/stubbert
H:                                                        copyrights Stubbert Music, SOCAN
L:1/8
Q:300
M:6/8
K:Ador
B|AAA G2 B|Aed eag|TedB {D}G2 B|dgf TedB|
AAA {D}G2 B|Aed eag|TedB deg|TedB TA2:|
|:B|AaA gAf|eag efg|GGG TBAB|Ggf TedB|
[1AaA gAf|eag efg|a2 f gbg|TedB TA2:|
[2AAA {D}G2 B|Aed eag|TedB deg|TedB TA2|]
